!!!COM: Dueto, Antonio
!!!CDT: ~1545-~1602
!!!OTL: Ne i vostri dolci baci
!!!rime: 305
!!!PTL: Il secondo libro de madrigali a cinque voci
!!!PPP: Venice
!!!PPR: Angelo Gardano
!!!PDT: 1585
!!!PUB-format:
!!!RISM: D 3654
!!!AGN: Madrigal
!!!SCT: Trm0305c
!!!SCA: Trm0305c
!!!original-voices: 5
!!!extant-voices: 2
!!!complete: N
!!!final: G
**kern	**text	**kern	**text
*part2	*part2	*part1	*part1
*staff2	*staff2	*staff1	*staff1
*Ivox	*	*Ivox	*
*I"Quinto	*	*I"Canto	*
*I'V	*	*I'C	*
*oclefC4	*	*oclefC1	*
*clefGv2	*	*clefG2	*
*k[]	*	*k[]	*
*omet(C|)	*	*omet(C|)	*
*M2/1	*	*M2/1	*
=1	=1	=1	=1
2G	Ne i	0g	Ne i
2.c	vo-	.	.
4B	-stri	.	.
4c	dol-	.	.
4e	-ci	.	.
=2	=2	=2	=2
2d	ba-	2a	vo-
4d	-ci,	2b	-stri
4d	<Ne i	.	.
2.e	vo-	2.cc	dol-
4d	-stri	4dd	-ci
=3	=3	=3	=3
2c	dol-	2g	ba-
2B	-ci	2g	-ci,
1d	ba-	1r	.
=4	=4	=4	=4
2d	-ci>	4r	.
.	.	4g	<Ne i
2r	.	2.a	vo-
1r	.	.	.
.	.	4g	-stri
.	.	4a	dol-
.	.	[4cc	-ci
=5	=5	=5	=5
2r	.	4cc]	.
.	.	4b	ba-
2c	De	4cc	-ci>
.	.	4cc	De
2c	l'A-	2cc	l'A-
4A	-pi &egrave; 'l	4cc	-pi &egrave; 'l
[4F	dol-	[4cc	dol-
=6	=6	=6	=6
4F]	.	4cc]	.
4G	-ce	4b	-ce
2A	me-	2a	me-
2D	-le,	2a	-le,
4r	.	4r	.
4d	<De	4f#X	<De
=7	=7	=7	=7
4d	l'A-	2g	l'A-
4e	-pi &egrave; 'l	.	.
1f	dol-	2a	-pi &egrave; 'l
.	.	2b-	dol-
2e	-ce	4a	-ce
.	.	[4g	me-
=8	=8	=8	=8
1d	me-	4g]	.
.	.	8f#iL	.
.	.	8eJ	.
.	.	2f#i	.
1d	-le>	1g	-le>
=9	=9	=9	=9
2.e	E	1r	.
4d	vi &egrave; 'l	.	.
2c	mor-	2r	.
8d	-so	4r	.
8c	de	.	.
[4B	l'A-	[4g	E
=10	=10	=10	=10
4B]	.	4g]	.
4A	-pi an-	4f	vi &egrave; 'l
4.G	-cor	2.e	mor-
8A	.	.	.
4B	.	.	.
2c	cru-	8f	-so
.	.	8e	de
.	.	2d	l'A-
4B	-de-	.	.
=11	=11	=11	=11
2c	-le,	4e	-pi,
.	.	2cc	<E
2r	.	.	.
.	.	4b	vi &egrave; 'l
2r	.	2a	mor-
4r	.	8b	-so
.	.	8a	de
4B	an-	[4g	l'A-
=12	=12	=12	=12
4B	-cor	4g]	.
4c	cru-	4g	-pi> an-
4A	-de-	4f	-cor
4G	-le,	4e	cru-
2r	.	2d	-de-
[2g	E	2e	-le.
=13	=13	=13	=13
4g]	.	2.ee	E
4f	vi &egrave; 'l	.	.
2.e	mor-	.	.
.	.	4dd	vi &egrave; 'l
.	.	2cc	mor-
8f	-so	.	.
8e	de	.	.
4d	l'A-	8dd	-so
.	.	8cc	de
4e	-pi an-	4b	l'A-
=14	=14	=14	=14
2.c	-cor	4cc	-pi an-
.	.	2a	-cor
2d	cru-	4a	cru-
.	.	1g	-de-
2c	-de-	.	.
4B	.	.	.
=15	=15	=15	=15
2c	-le.	2g	-le.
2r	.	1g	Dun-
1r	.	.	.
.	.	4f#X	-qu'ad-
.	.	4f#i	-dol-
=16	=16	=16	=16
0r	.	2f#i	-ci-
.	.	4g	-to e
.	.	2a	pun-
.	.	4g	-to
.	.	2r	.
=17	=17	=17	=17
1r	.	4b	Da
.	.	4cc	voi
.	.	1dd	par-
4.d	Da	.	.
8e	voi	.	.
4f	par-	4cc	-t'in
4d	-to,	4b	un
=18	=18	=18	=18
1r	.	2a	pun-
.	.	2d	-to,
4B	<Da	1r	.
4c#X	voi	.	.
4d	par-	.	.
4d	-to,>	.	.
=19	=19	=19	=19
1r	.	2r	.
.	.	4a	<Da
.	.	4b	voi
4e	Da	2cc	par-
4f#X	voi	.	.
4g	par-	4b	-t'in
8c	-t'in	4a	un
8c	un	.	.
=20	=20	=20	=20
2d	pun-	2dd	pun-
2e	-to,	2cc#X	-to,>
4.c	Da	2r	.
8d	voi	.	.
4e	par-	4.g	Da
4d	-to	.	.
.	.	8a	voi
=21	=21	=21	=21
1r	.	4b-	par-
.	.	8a	-t'in
.	.	8g	un
.	.	4f#X	pun-
.	.	4g	-to,
2r	.	2r	.
[2B	Dun-	[2g	Dun-
=22	=22	=22	=22
2B]	.	2g]	.
4A	-qu'ad-	4f#X	-qu'ad-
4A	-dol-	4f#i	-dol-
2A	-ci-	2f#i	-ci-
4B	-to e	4g	-to e
[4c	pun-	[4a	pun-
=23	=23	=23	=23
4c]	.	4a]	.
4c	-to	4g	-to
2r	.	2r	.
1r	.	2r	.
.	.	4.b	Da
.	.	8cc	voi
=24	=24	=24	=24
8B	Da	4dd	par-
8c	voi	.	.
4d	par-	4d	-t'in
4c	-t'in	4e	un
4c	un	2g	pun-
1A	pun-	.	.
.	.	8f#iL	.
.	.	8eJ	.
.	.	2f#i	.
=25	=25	=25	=25
0Gl	-to.	0gl	-to.
==	==	==	==
*-	*-	*-	*-
!!!system-decoration: [*]
!!!RDF**kern: i = editorial accidental
!!!RDF**kern: l = terminal long
!!!ENC: Emiliano Ricciardi
!!!END: 2012
!!!EED: Ricciardi, Emiliano
!!!EEV: 2016/02/08
!!!YEC: Copyright 2013 Emiliano Ricciardi, All Rights Reserved
!!!ONB: Translated from MusicXML on 2013/08/18 and edited by Craig Stuart Sapp
!!@@BEGIN:	VERSEDATA
!!@SOLERTI:	305
!!@CATALOGNUM:	Trm0305
!!@LAST_MODIFIED: 2020/07/12
!!@TITLE:		Ne i vostri dolci baci
!!@GENRE:		madrigale
!!@MANUSRC:	Amz, Brn, C, Ts<sub>1</sub>, V<sub>8</sub>, V<sub>13/TS1</sub>
!!@PRINTSRC:	8, 9, 11, 12, 13, 15, 20, 24, 29, 33, 67, 145, 141, 166, 169
!!@@BEGIN:	VERSES
!!@ABOUTIT:	Sovra i baci di una bella giovane
!!@ABOUTEN:	On the kisses of a beautiful young lady
!!@EDITOR:	Solerti, Angelo
!!@EDITION_TITLE: Le Rime di Torquato Tasso
!!@EDITION_LOC:	Bologna
!!@EDITION_PUB:	Romagnoli-Dall’Acqua
!!@EDITION_DATE:  1898-1902
!!@EDITION_VOL:	2
!!@EDITION_PAGE:  366
!!@TRANSLATOR:	Emiliano Ricciardi and Amyrose McCue Gill
!!@VERSE:
!!	Ne i vostri dolci baci
!!	De l'Api è il dolce mele,
!!	E v'è l'ago de l'api aspro crudele.
!!	Dunque addolcito e punto
!!	Da voi parto in un punto.
!!@TVERSE:
!!	In your sweet kisses
!!	Is the sweet honey of the bees
!!	And there [too] is the stinger of the bees, biting and cruel.
!!	Thus sweetened and stung
!!	From you I depart at once.
!!@@END:		VERSES
!!@OTHER_CRIT_ED:   Torquato Tasso, <i>Rime d’amore (secondo il codice
!!		Chigiano L VIII 302)</i>, eds. Franco Gavazzeni and
!!		Vercingetorige Martignone, vol. 4 of <i>Edizione
!!		Nazionale delle opere di Torquato Tasso</i>
!!		(Alessandria: Edizioni Dell’Orso, 2004), 172.
!!@ATTRIBUTION_ABOUT:	Secure
!!		<br>
!!		Among other authoritative sources (see Literary
!!		Sources), this poem appears in the autograph Chigiano
!!		L.VIII.302 (Biblioteca Vaticana, Rome), compiled
!!		around 1584&ndash;85.
!!@DATING:	In or before 1581
!!	<br>
!!	The earliest datable appearance of this poem is in Manuzio's 1581 print of the <i>Rime</i> (see Literary Sources).
!!@DEDICATEE:
!!@COMMENTARY:
!!@@END:		VERSEDATA
!!@@BEGIN:	SETTING
!!@CATALOGNUM:	Trm0305c
!!@RIMETITLE:	Ne i vostri dolci baci
!!@SOLERTI:	305
!!@COMPOSER:	Dueto, Antonio
!!@PRINCEPSTITLE:	Il secondo libro de madrigali a cinque voci
!!@PRINCEPSLOC:	Venetia
!!@NORMLOC:	Venice
!!@NORMPUB:	Angelo Gardano
!!@NORMPUBSHORT:	Gardano
!!@PRINCEPSPUB:	Gardano
!!@PRINCEPSYEAR:	1585
!!@PRINCEPSRISM:	D 3654
!!@REPRINTS:	
!!@OVOICES:	5
!!@EXTANTVOICES:	2
!!@PARTBOOKS:	
!!@EXTPARTBOOKS:	
!!@OCLEFS:	C1,C4
!!@OMENSURATION:	Cut-C
!!@OKEYSIG:	-
!!@FINAL:	G
!!@TIMPEDITOR:	Ricciardi, Emiliano
!!@NOTE:		
!!@@END:		SETTING
